X: 21381
Q: "Slowly"
M: 9/8
L: 1/8
K: Dm
|: A/d/ |\
f2f efd cA2 | B3 A2G F<Df |
e>fd ^c>de d2A/d/ | f>ff e2d c<AA | B3 A2G F<Df |\
e>fd ^cde d2A/A/ | B2B A>BG F<D |]


